!!!OTL: Mit Gott.
!!!ARE: Europa, Mitteleuropa, Deutschland
!!!SCT: A0639
!!!TXL: @@DE
!!!YEM: Copyright 1995, estate of Helmut Schaffrath.
**kern	**text
!! Mixed meters:  4/2; 6/2
*M6/2	*
*met(c|)	*
*clefC4	*
*k[b-]	*
*F:ion	*
!LO:TX:a:t=jon.	!
{1F	Jch
=1	=1
*M4/2	*
2F	hab
2F	mein
2A	Sach
2A	ʒu
=2	=2
2B-	Gott
2c	ge-
1c	-ſtelt,
=3	=3
2r}	.
{2c	der
2c	wirds
2c	wol
=4	=4
2c	mach'n
2c	wies
2G	jhm
2A/	ge-
=5	=5
1G	-ſelt,
2r}	.
{2c	dem
=6	=6
*M6/2	*
1c	thu
2B-	ich
1A	mich
2G	be-
=7	=7
*M4/2	*
2F	-ſeh-
4E	.
4D	.
1E	.
=8	=8
0C	-len;
=9	=9
1r}	.
{1C	mein
=10	=10
2F	Leib,
2F	mein
2A	Seel,
2A	mein
=11	=11
2B-	Ehr
2c	vnd
1c	gut,
=12	=12
2r}	.
{2A	das
2B-	helt
2c	Gott
=13	=13
2c	ſtets
*lig	*
4A/	in
4G	.
*Xlig	*
2F	ſei-
2F	-ner
=14	=14
*lig	*
4D	hut,
4E	.
4F	.
4G	.
1A}	.
*Xlig	*
=15	=15
{1F	hie
2A	vnd
2B-	im
=16	=16
*M6/2	*
2.c	e-
4A	-wi-
2B-	-gen
2A	le-
1G	.
=17	=17
0F/ll}	-ben.
==	==
!!!GTL: Geistliche Volkslieder
!!!AGN: Romanze, Ballade, Lied, religioeses Lied
!! Dresdner Gsgb 1593
!!!ONB: ESAC (Essen Associative Code) Database: ALTDEU
!!!AMT: irregular
!!!AIN: vox
!!!EED: Helmut Schaffrath
!!!EEV: 1.0
!!!RDF**kern: l = terminal long
!!!AMD: Ionian
!!!URL-scan: https://rosdok.uni-rostock.de/mcrviewer/recordIdentifier/rosdok_ppn738218359/iview2/phys_0822.iview2?x=105.19263581881364&y=271.6349435742013&scale=0.7106933083589261&rotation=0&layout=singlePageLayout&logicalDiv=log_0007
!!!ENC: Anna Maria Matuszewska
!!!EEV: 2024/25/03
*-	*-
